svgs/270D.svg

<svg xmlns="http://www.w3.org/2000/svg" xmlns:xlink="http://www.w3.org/1999/xlink" preserveAspectRatio="none" viewBox="0 0 72 72"><defs><path id="a" fill="#E48C15" d="M69.9 47.45q-5.45-2.8-12.15-4.7-13.4-3.85-19.45.55-5.4 3.85-11.55 7.45-3.4 2-8.4 4.75-.8.5-3.5 1.55-2.25.95-3.5 1.85-3.9 2.9-4.45 10.3-.35 5.05-.85 13.5-.5 6.4-1.5 8.55Q2.9 94.7 3.9 97.6q.9 2.7 3.35 3.2 2.55.5 5.05-2.1 2.85-3 4.45-9.35 1.6-5.35 4.95-6.9 2.6-1.25 7.15-.3 2.6.5 8.2 2.1 5 1.15 8.2.4 7.15-1.7 19.1-12.2 11-9.6 12.95-14.1 1.9-4.3-2.55-8.05l-4.85-2.85z"/><path id="b" fill="#E48C15" d="M25.05 96.1l-.2 2.25q-.05 2.7.6 4.65 2.05 6.35 10.55 3.55 14.1-4.7 21.05-2.15 2.1.8 4.9 2.85 2.9 2.15 4.5 2.8 8.55 3.45 16.3 1.8 9.1-1.95 17.5-11 7.95-8.6-12.5-13.8-9.4-2.4-30.8-4.65-7.5-.8-19.8 6.25-6.2 3.55-10.85 7.2l-1.25.25z"/><path id="c" fill="#006CA0" d="M30.3 98.45q-3.55-2.85-7.4-5.2-7.75-4.8-9.2-2.55-2.35 3.55-6.85 12.65L.7 121.1v1.15l-.65 3.05q.1 2.35 3.95-.9l.85-.2q4.2-3.4 8.45-6.8 8.55-6.8 8.9-6.9.55-.2 8.1-12.05z"/><path id="d" fill="#006CA0" d="M70.2 4q-2.8 3.15-28.75 42.5-12.95 19.7-25.4 38.75l-.9 1.8 16.55 1.5Q46.1 69.1 60 49.4 87.85 9.95 85.55 8.5 74 1.15 73.95 1.15q-1-.35-1.7.4Q71.2 2.9 70.2 4z"/><path id="e" fill="#FAC036" d="M114.95 69.7q-6.35-2.1-20.65-9.15-13.55-6.6-18.75-9.9-3.8-2.35-6.3-2.5-5.2-.4-10.15 5.3l-4.9 6.3q-2.1 3.1-5.55 6.85-6.8 7.45-13.35 10.55-5.2 2.5-15.35 6.45-7.3 3.7-6.1 9 1.75 7.35 8.7 8.9 8.2 1.85 19.2-6.4 5.5-3.55 10.85-2.1.45.1 10.1 4.6 1.8.85 4.85 2.9 2.9 1.95 4.7 2.75 6.25 2.7 17.8.8 12.1-1.95 18.1-.4 2.3.6 5.05 2.05 1.6.85 5.25 2.85 8.95-5.6 8.95-29.4 0-6.65-2-7.85-1-.6-10.45-1.6z"/></defs><use transform="scale(.5625)" xlink:href="#a"/><use transform="scale(.5625)" xlink:href="#b"/><use transform="scale(.5625)" xlink:href="#c"/><use transform="scale(.5625)" xlink:href="#d"/><use transform="scale(.5625)" xlink:href="#e"/></svg>

<svg xmlns="http://www.w3.org/2000/svg" version="1.1" xmlns:xlink="http://www.w3.org/1999/xlink" preserveAspectRatio="none" x="0px" y="0px" width="72px" height="72px" viewBox="0 0 72 72">
<defs>
<g id="Layer0_0_MEMBER_0_MEMBER_0_FILL">
<path fill="#E48C15" stroke="none" d="
M 69.9 47.45
Q 64.45 44.65 57.75 42.75 44.35 38.9 38.3 43.3 32.9 47.15 26.75 50.75 23.35 52.75 18.35 55.5 17.55 56 14.85 57.05 12.6 58 11.35 58.9 7.45 61.8 6.9 69.2 6.55 74.25 6.05 82.7 5.55 89.1 4.55 91.25 2.9 94.7 3.9 97.6 4.8 100.3 7.25 100.8 9.8 101.3 12.3 98.7 15.15 95.7 16.75 89.35 18.35 84 21.7 82.45 24.3 81.2 28.85 82.15 31.45 82.65 37.05 84.25 42.05 85.4 45.25 84.65 52.4 82.95 64.35 72.45 75.35 62.85 77.3 58.35 79.2 54.05 74.75 50.3
L 69.9 47.45 Z"/>
</g>

<g id="Layer0_0_MEMBER_1_MEMBER_0_FILL">
<path fill="#E48C15" stroke="none" d="
M 25.05 96.1
L 24.85 98.35
Q 24.8 101.05 25.45 103 27.5 109.35 36 106.55 50.1 101.85 57.05 104.4 59.15 105.2 61.95 107.25 64.85 109.4 66.45 110.05 75 113.5 82.75 111.85 91.85 109.9 100.25 100.85 108.2 92.25 87.75 87.05 78.35 84.65 56.95 82.4 49.45 81.6 37.15 88.65 30.95 92.2 26.3 95.85
L 25.05 96.1 Z"/>
</g>

<g id="Layer0_0_MEMBER_2_MEMBER_0_FILL">
<path fill="#006CA0" stroke="none" d="
M 30.3 98.45
Q 26.75 95.6 22.9 93.25 15.15 88.45 13.7 90.7 11.35 94.25 6.85 103.35
L 0.7 121.1 0.7 122.25 0.05 125.3
Q 0.15 127.65 4 124.4
L 4.85 124.2
Q 9.05 120.8 13.3 117.4 21.85 110.6 22.2 110.5 22.75 110.3 30.3 98.45 Z"/>
</g>

<g id="Layer0_0_MEMBER_3_MEMBER_0_FILL">
<path fill="#006CA0" stroke="none" d="
M 70.2 4
Q 67.4 7.15 41.45 46.5 28.5 66.2 16.05 85.25
L 15.15 87.05 31.7 88.55
Q 46.1 69.1 60 49.4 87.85 9.95 85.55 8.5 74 1.15 73.95 1.15 72.95 0.8 72.25 1.55 71.2 2.9 70.2 4 Z"/>
</g>

<g id="Layer0_0_MEMBER_4_MEMBER_0_FILL">
<path fill="#FAC036" stroke="none" d="
M 114.95 69.7
Q 108.6 67.6 94.3 60.55 80.75 53.95 75.55 50.65 71.75 48.3 69.25 48.15 64.05 47.75 59.1 53.45
L 54.2 59.75
Q 52.1 62.85 48.65 66.6 41.85 74.05 35.3 77.15 30.1 79.65 19.95 83.6 12.65 87.3 13.85 92.6 15.6 99.95 22.55 101.5 30.75 103.35 41.75 95.1 47.25 91.55 52.6 93 53.05 93.1 62.7 97.6 64.5 98.45 67.55 100.5 70.45 102.45 72.25 103.25 78.5 105.95 90.05 104.05 102.15 102.1 108.15 103.65 110.45 104.25 113.2 105.7 114.8 106.55 118.45 108.55 127.4 102.95 127.4 79.15 127.4 72.5 125.4 71.3 124.4 70.7 114.95 69.7 Z"/>
</g>
</defs>

<g id="Layer_1">
<g transform="matrix( 0.5625, 0, 0, 0.5625, 0,0) ">
<use xlink:href="#Layer0_0_MEMBER_0_MEMBER_0_FILL"/>
</g>

<g transform="matrix( 0.5625, 0, 0, 0.5625, 0,0) ">
<use xlink:href="#Layer0_0_MEMBER_1_MEMBER_0_FILL"/>
</g>

<g transform="matrix( 0.5625, 0, 0, 0.5625, 0,0) ">
<use xlink:href="#Layer0_0_MEMBER_2_MEMBER_0_FILL"/>
</g>

<g transform="matrix( 0.5625, 0, 0, 0.5625, 0,0) ">
<use xlink:href="#Layer0_0_MEMBER_3_MEMBER_0_FILL"/>
</g>

<g transform="matrix( 0.5625, 0, 0, 0.5625, 0,0) ">
<use xlink:href="#Layer0_0_MEMBER_4_MEMBER_0_FILL"/>
</g>
</g>
</svg>
